svg/regular/bx-message-alt-add.svg

<svg xmlns="http://www.w3.org/2000/svg" width="24" height="24"><path d="M3 16c0 1.103.897 2 2 2h3.586L12 21.414 15.414 18H19c1.103 0 2-.897 2-2V4c0-1.103-.897-2-2-2H5c-1.103 0-2 .897-2 2v12zM5 4h14v12h-4.414L12 18.586 9.414 16H5V4z"/><path d="M11 14h2v-3h3V9h-3V6h-2v3H8v2h3z"/></svg>

<svg xmlns="http://www.w3.org/2000/svg" width="24" height="24" viewBox="0 0 24 24"><path d="M3,16c0,1.103,0.897,2,2,2h3.586L12,21.414L15.414,18H19c1.103,0,2-0.897,2-2V4c0-1.103-0.897-2-2-2H5C3.897,2,3,2.897,3,4 V16z M5,4h14v12h-4.414L12,18.586L9.414,16H5V4z"/><path d="M11 14L13 14 13 11 16 11 16 9 13 9 13 6 11 6 11 9 8 9 8 11 11 11z"/></svg>
